packages/foundations/assets/icons/functional/images/navigation/menu.svg

<svg xmlns="http://www.w3.org/2000/svg" width="32" height="32" fill="none"><path fill="#1A1C1F" fill-rule="evenodd" d="M5.649 8.051c-.387.117-.636.48-.636.928 0 .505.306.883.799.989.193.042 3.198.058 10.284.056 11.237-.002 10.364.029 10.7-.389.149-.186.164-.24.164-.591 0-.329-.021-.417-.143-.601a1 1 0 0 0-.377-.33L26.206 8l-10.21.005c-5.615.002-10.271.023-10.347.046m.064 6.989c-.212.05-.41.189-.563.394-.087.117-.11.226-.11.534 0 .481.136.715.53.913l.264.132h8.136c5.433 0 8.203-.019 8.335-.055.419-.117.682-.473.682-.926 0-.299-.074-.496-.257-.69-.337-.356.392-.328-8.65-.337-4.503-.005-8.268.011-8.367.035m-.196 7.062c-.691.301-.664 1.443.043 1.785l.234.113h20.483l.232-.123c.694-.367.614-1.514-.126-1.794-.104-.039-3.29-.056-10.426-.054-8.424.001-10.306.015-10.44.073"/></svg>

<svg width="32" height="32" viewBox="0 0 32 32" fill="none" xmlns="http://www.w3.org/2000/svg"><path d="M5.649 8.051 C 5.262 8.168,5.013 8.531,5.013 8.979 C 5.013 9.484,5.319 9.862,5.812 9.968 C 6.005 10.010,9.010 10.026,16.096 10.024 C 27.333 10.022,26.460 10.053,26.796 9.635 C 26.945 9.449,26.960 9.395,26.960 9.044 C 26.960 8.715,26.939 8.627,26.817 8.443 C 26.731 8.312,26.581 8.181,26.440 8.113 L 26.206 8.000 15.996 8.005 C 10.381 8.007,5.725 8.028,5.649 8.051 M5.713 15.040 C 5.501 15.090,5.303 15.229,5.150 15.434 C 5.063 15.551,5.040 15.660,5.040 15.968 C 5.040 16.449,5.176 16.683,5.570 16.881 L 5.834 17.013 13.970 17.013 C 19.403 17.013,22.173 16.994,22.305 16.958 C 22.724 16.841,22.987 16.485,22.987 16.032 C 22.987 15.733,22.913 15.536,22.730 15.342 C 22.393 14.986,23.122 15.014,14.080 15.005 C 9.577 15.000,5.812 15.016,5.713 15.040 M5.517 22.102 C 4.826 22.403,4.853 23.545,5.560 23.887 L 5.794 24.000 16.035 24.000 L 26.277 24.000 26.509 23.877 C 27.203 23.510,27.123 22.363,26.383 22.083 C 26.279 22.044,23.093 22.027,15.957 22.029 C 7.533 22.030,5.651 22.044,5.517 22.102 " fill="#1A1C1F" stroke="none" fill-rule="evenodd"></path></svg>
